X:1
T:Nauman (Melodist), CM
T:Nauman (Melodist), CM
T:Anonymous, 1843
T:Public Domain Courtesy of the Cyber Hymnal™
C:Anonymous, 1843
Z:Public Domain
Z:Courtesy of the Cyber Hymnal™
%%score ( 1 2 ) 3
L:1/8
Q:1/4=93
M:3/4
K:E
V:1 treble 
V:2 treble 
V:3 bass 
V:1
 [GB]2 | [GB]>[FA] [EG][DF] E[Ac] | [GB]4 [EG]2 | [DF][EG] [FA]2 [EG]2 | ([EG]2 [DF]2) [FB]2 | %5
 [GB]>[FA] [EG][DF] E[Ac] | [GB]4 [FB]2 | [EG][FA] [EG]2 [DF]2 | [EG]4 |] %9
V:2
 x2 | x4 E x | x6 | x6 | x6 | x4 E x | x6 | x6 | x4 |] %9
V:3
 [E,B,]2 | [E,B,]>[E,B,] [E,B,][B,,B,] [E,B,][E,E] | [E,E]4 [E,B,]2 | %3
 [B,,B,][E,B,] [D,B,]2 [E,B,]2 | [B,,B,]4 [B,,B,]2 | [E,B,]>[E,B,] [E,B,][B,,B,] [E,B,][E,E] | %6
 [E,E]4 [D,B,]2 | [E,B,][A,,C] [B,,B,]2 [B,,B,]2 | [E,B,]4 |] %9

